!!!!SEGMENT:pl-kk--kk-i-40--003-001_guami-gioseffo-missa-in-me-transierunt-kyrie.krn
!!!id: 16xx:1285
!!!COM: Guami, Gioseffo
!!!OTL: Missa In me transierunt – Kyrie
!!!PDT:
!!!SMS-siglum: PL-Kk
!!!SMS-shelfmark: Kk.I.40
!!!NIFC-rismID: 1001154489
!!!URL-scan: http://repozytorium.nifc.pl/skany/pl-kk-nut--i-40
!!!ONB-nifc: UWAGA: części Mszy: 1. Kyrie, 2. Et in terra, 3. Sanctus, 4. Agnus Dei. Skan 0006-0007
!!!SMS-variant:
!!!SMS-altvar:
**kern	**text
*I"Baſso Ripieno.	*
*I'B rip	*
*clefF4	*
*k[]	*
*M2/1	*
*met(c|)	*
=1-	=1-
!LO:TX:t=P:problem:oddech/cezura na różnej wysokości:global	!
!LO:TX:t=P:problem:przed metrum: AA C E	!
!LO:N:vis=00	!
00r	.
=2-	=2-
.	.
=3-	=3-
0r	.
=4-	=4-
!LO:TX:t=P:problem:kreska pseudotaktowa	!
1r	.
0AA	Ky-
=5-	=5-
.	.
1AA	-ri-
=6-	=6-
1.C	-e
2D/	e-
=7-	=7-
1E	-lei-
!LO:TX:t=P:problem:kreska pseudotaktowa	!
1AA	-son
=8-	=8-
2r	.
*2\right	*
2.D\	Ky-
4E\	.
4F\	.
4G\	-ri-
=9-	=9-
2A\	-e
!LO:TX:t=P:problem:kreska pseudotaktowa	!
2E\	.
2F\	e-
2D\	.
=10-	=10-
2C/	-lei-
2G\	.
1F	.
=11-	=11-
!LO:TX:t=P:problem:kreska pseudotaktowa	!
1E	-son
0r	.
=12-	=12-
.	.
!LO:TX:t=P:problem:kreska pseudotaktowa	!
!LO:N:vis=1	!
1r	.
=13-	=13-
2r	.
*	*ij
1A	Ky-
2G\	-rie
=14-	=14-
1F	e-
!LO:TX:t=P:problem:kreska pseudotaktowa	!
1E	-lei-
=15-	=15-
2AA,/	-son
*	*Xij
1A	Ky-
2AA/	-ri-
=16-	=16-
1.F	-e
2E\	e-
=17-	=17-
1D	-lei-
!LO:TX:t=P:problem:kreska pseudotaktowa	!
1C	-ſon
=18-	=18-
1r	.
2r	.
1A\	Ky-
=19-	=19-
.	.
!LO:TX:t=P:problem:kreska pseudotaktowa	!
!LO:SIC:v:t=custos F	!
2G\	-ri-
!LO:LB:g=original	!
*lig	*
1F	-e
=20-	=20-
1E	e-
*Xlig	*
2AA/	-lei-
2E\	.
=21-	=21-
!LO:TX:t=P:problem:kreska pseudotaktowa	!
1A	-son
2r	.
2E\	Ky-
=22-	=22-
2AA/	-ri-
2E\	-e
2F\	.
2D\	e-
=23-	=23-
2C/	.
!LO:TX:t=P:problem:kreska pseudotaktowa	!
2F\	.
2.E\	-lei-
4D/	.
=24-	=24-
1C	.
1AA	.
=25-	=25-
0E;>	-son.
=26||-	=26||-
*M2/1	*
*met(c|)	*
!LO:N:vis=00	!
00r	.
=27-	=27-
.	.
=28-	=28-
!LO:TX:t=P:problem:kreska pseudotaktowa	!
1r	.
2r	.
1A\	(Chris)-
=29-	=29-
.	.
2AA/	-te
2.E\	e-
4D/	.
=30-	=30-
2C/	.
2BB/	-lei-
0AA	-son
=31-	=31-
.	.
!LO:TX:t=P:problem:kreska pseudotaktowa	!
!LO:N:vis=1	!
1r	.
=32-	=32-
2r	.
*	*ij
2E\	(Chris)-
2C/	.
2D\	-te
=33-	=33-
2E\	e-
2F\	-lei-
!LO:TX:t=P:problem:kreska pseudotaktowa	!
0E	-son
*	*Xij
=34-	=34-
.	.
!LO:N:vis=1	!
1r	.
=35-	=35-
1.F	Chris-
!LO:TX:t=P:problem:kreska pseudotaktowa	!
!LO:SIC:v:t=custos D	!
2C/	-te
!LO:LB:g=original	!
=36-	=36-
2D/	e-
2BB-X/	-lei-
!LO:TX:t=P:problem:kreska pseudotaktowa	!
1AA	-son
=37-	=37-
0r	.
=38-	=38-
2r	.
*	*ij
1E	Chris-
!LO:TX:t=P:problem:kreska pseudotaktowa	!
2BBny/	-te
=39-	=39-
2C/	e-
2AA/	-lei-
!LO:TX:t=P:problem:kreska pseudotaktowa	!
1GG	-son
*	*Xij
=40-	=40-
0r	.
=41-	=41-
2r	.
2G\	(Chris)-
2.C/	-te
4D/	e-
=42-	=42-
4E/	.
4D/	.
4C/	.
4BB/	.
2AA/	.
2GG/	-lei-
=43-	=43-
1D	-ſon
!LO:TX:t=P:problem:kreska pseudotaktowa	!
1AA	.
=44-	=44-
0r	.
=45-	=45-
1A	(Chris)-
1AA	-te
=46-	=46-
2.C/	e-
4D/	.
1E	-lei-
=47-	=47-
0AA;>	-son
=48||-	=48||-
*M2/1	*
*met(c|)	*
!LO:N:vis=00	!
00r	.
=49-	=49-
.	.
=50-	=50-
!LO:TX:t=P:problem:kreska pseudotaktowa	!
0r	.
=51-	=51-
2r	.
1A	Ky-
2G\	-ri-
=52-	=52-
2D\	-e
2E\	.
1F	e-
=53-	=53-
2E\	-lei-
!LO:TX:t=P:problem:kreska pseudotaktowa	!
!LO:SIC:v:t=custos F	!
2E\	.
!LO:LB:g=original	!
2F\	.
2G\	.
=54-	=54-
1A	-son
!LO:TX:t=P:problem:kreska pseudotaktowa	!
1AA	.
=55-	=55-
2r	.
*	*ij
2E\	Ky-
2G\	-ri-
!LO:TX:t=P:problem:kreska pseudotaktowa	!
2G\	-e
=56-	=56-
2F\	e-
2D\	-lei-
!LO:TX:t=P:problem:kreska pseudotaktowa	!
1E	-son
*	*Xij
=57-	=57-
2r	.
1A	Ky-
2G\	-ri-
=58-	=58-
2D\	-e
!LO:TX:t=P:problem:kreska pseudotaktowa	!
2E\	e-
1F	-lei-
=59-	=59-
!LO:TX:t=P:problem:kreska pseudotaktowa	!
1E	-ſon
0r	.
=60-	=60-
.	.
2r	.
*	*ij
2AA/	Ky-
=61-	=61-
!LO:TX:t=P:problem:kreska pseudotaktowa	!
1E	-ri-
2F\	-e
2C/	e-
=62-	=62-
1D	-lei-
!LO:TX:t=P:problem:kreska pseudotaktowa	!
1AA	-ſon
*	*Xij
=63-	=63-
!LO:N:vis=00	!
00r	.
=64-	=64-
.	.
=65-	=65-
!LO:TX:t=P:problem:kreska pseudotaktowa	!
1r	.
2r	.
1A\	Ky-
=66-	=66-
.	.
2AA/	-ri-
1E	-e
=67-	=67-
0AA	elei-
=68-	=68-
0E;>	-son
==	==
*-	*-
!!!RDF**kern: > = above
!!!RDF**kern: < = belo
!!!ENC: Katarzyna Serwa
!!!END: 2021-07-04
!!!EED: Antoni Szymański
!!!EST: 2021-07-31
